icons/solid/stop-circle.svg

<svg width="24" height="24" viewBox="0 0 24 24" fill="none" xmlns="http://www.w3.org/2000/svg">
<path fill-rule="evenodd" clip-rule="evenodd" d="M2 12C2 6.47715 6.47715 2 12 2C17.5228 2 22 6.47715 22 12C22 17.5228 17.5228 22 12 22C6.47715 22 2 17.5228 2 12ZM8 10C8 8.89543 8.89543 8 10 8H14C15.1046 8 16 8.89543 16 10V14C16 15.1046 15.1046 16 14 16H10C8.89543 16 8 15.1046 8 14V10Z" fill="currentColor"/>
</svg>

<svg width="24" height="24" fill="none" xmlns="http://www.w3.org/2000/svg"><path fill-rule="evenodd" clip-rule="evenodd" d="M2 12C2 6.477 6.477 2 12 2s10 4.477 10 10-4.477 10-10 10S2 17.523 2 12zm6-2a2 2 0 012-2h4a2 2 0 012 2v4a2 2 0 01-2 2h-4a2 2 0 01-2-2v-4z" fill="currentColor"/></svg>
